mobile/24/svg/avatar-circle-fill-24.svg

<svg width="24" height="24" viewBox="0 0 24 24" fill="none" xmlns="http://www.w3.org/2000/svg">
<path fill-rule="evenodd" clip-rule="evenodd" d="M10.979 21.9483C11.3148 21.9825 11.6554 22 12 22C12.4957 22 12.9832 21.9637 13.4598 21.8937C15.2564 21.6297 16.896 20.8858 18.25 19.799V19.8009C20.5349 17.9667 22 15.1512 22 12C22 6.486 17.514 2 12 2C6.486 2 2 6.486 2 12C2 15.1512 3.46515 17.9667 5.75 19.8009V19.799C7.21349 20.9737 9.01054 21.7477 10.979 21.9483ZM9.10295 10.799C8.58595 8.798 10.0829 7 11.9999 7C13.6569 7 15 8.343 15 10C15 11.917 13.202 13.414 11.2009 12.897C10.1899 12.636 9.36395 11.809 9.10295 10.799ZM12 19.75C14.488 19.75 16.7 18.567 18.119 16.738C17.796 15.733 16.863 15 15.75 15H8.24998C7.13698 15 6.20398 15.733 5.88098 16.738C7.29998 18.567 9.51198 19.75 12 19.75Z" fill="black"/>
</svg>

<svg width="24" height="24" fill="none" xmlns="http://www.w3.org/2000/svg"><path fill-rule="evenodd" clip-rule="evenodd" d="M10.979 21.948a10.074 10.074 0 0 0 2.48-.054 9.958 9.958 0 0 0 4.791-2.095v.002A9.986 9.986 0 0 0 22 12c0-5.514-4.486-10-10-10S2 6.486 2 12a9.986 9.986 0 0 0 3.75 7.8V19.8a9.951 9.951 0 0 0 5.229 2.15zM9.103 10.8A3.006 3.006 0 0 1 12 7a3 3 0 0 1 3 3 3.006 3.006 0 0 1-3.8 2.897 2.967 2.967 0 0 1-2.097-2.098zM12 19.75c2.488 0 4.7-1.183 6.119-3.012A2.492 2.492 0 0 0 15.75 15h-7.5a2.492 2.492 0 0 0-2.369 1.738A7.732 7.732 0 0 0 12 19.75z" fill="#000"/></svg>
